disney/_inc/system.svg

<svg xmlns="http://www.w3.org/2000/svg"><path d="m518.545 107.957c-10.143 2.34-36.927 3.642-36.927 3.642l-3.297 10.575s13.266-1.128 22.974-.174c0 0 3.12-.261 3.468 3.468.171 3.816-.261 7.803-.261 7.803s-.258 2.34-3.468 2.946c-3.726.606-28.866 1.734-28.866 1.734l-4.074 13.695s-1.476 3.123 1.908 2.256c3.12-.867 29.472-5.895 32.94-5.202 3.642.867 7.8 5.895 6.588 10.401-1.389 5.46-27.741 22.278-43.689 21.15 0 0-8.409.525-15.432-10.833-6.759-10.836 2.343-31.209 2.343-31.209s-4.077-9.534-1.041-13.002c0 0 1.734-1.473 6.933-1.905l6.504-13.35s-7.371.435-11.703-4.941c-3.99-5.202-4.335-7.455-1.212-8.841 3.291-1.734 33.804-7.194 54.783-6.504 0 0 7.368-.867 13.872 11.877 0 0 2.943 5.202-2.259 6.414m-79.143 51.318c-2.601 6.33-9.792 13.002-18.462 8.931-8.842-4.164-22.798-32.595-22.798-32.595s-5.202-10.575-6.24-10.23c0 0-1.131-2.079-1.734 9.537-.867 11.529.171 33.978-4.596 37.533-4.335 3.468-9.537 1.995-12.483-2.079-2.427-4.077-3.468-13.872-2.079-30.948 1.557-17.076 5.46-35.28 10.401-40.917 5.202-5.721 9.36-1.557 10.923 0 0 0 6.675 6.069 17.943 24.012l1.909 3.297s10.227 17.076 11.268 16.989c0 0 .867.867 1.56.174 1.041-.261.692-5.808.692-5.808s-1.905-18.462-11.442-49.671c0 0-1.386-3.987-.431-7.803.867-3.468 4.593-1.734 4.593-1.734s14.388 6.936 21.411 30.342c6.936 23.403 2.256 44.643-.345 50.97m-70.651-60.072c-1.386 2.424-1.995 5.808-7.974 6.759 0 0-58.08 4.077-60.942 8.151 0 0-1.905 2.427 1.215 3.033 3.297.696 16.47 2.43 22.713 2.772 6.759 0 29.472.177 37.791 10.404 0 0 4.77 4.854 4.596 15.864-.171 11.268-2.166 15.255-6.588 19.332-4.596 3.813-43.95 21.498-69.348-5.55 0 0-11.613-13.002 4.077-22.884 0 0 11.265-6.933 40.131 1.125 0 0 8.67 3.123 8.322 6.33-.519 3.468-7.194 6.936-16.902 6.762-9.363-.258-16.299-4.77-14.907-3.987 1.299.432-10.146-5.55-13.701-1.473-3.465 3.81-2.598 6.069.867 8.406 8.67 5.028 42.738 3.207 52.878-8.148 0 0 4.077-4.593-2.079-8.322-6.066-3.468-23.751-5.634-30.6-5.892-6.501-.348-30.858 0-34.5-6.33 0 0-3.465-4.509.345-16.815 3.987-13.005 32.334-18.033 44.646-19.074 0 0 33.807-1.386 40.134 5.55 0 0 .867 1.557-.174 3.9m-95.871 76.281c-4.077 3.036-12.747 1.734-15.258-1.734-2.427-3.033-3.294-14.994-2.862-33.804.609-19.245.867-42.822 5.202-46.638 4.335-3.726 6.936-.435 8.67 2.082 1.731 2.598 3.987 5.457 4.332 11.442.522 6.066 1.992 37.272 1.992 37.272s1.911 28.434-1.992 31.38m8.58-101.421c-11.961 4.077-20.109 2.775-27.042-.258-3.033 5.46-4.857 7.107-7.11 7.455-3.468.345-6.501-5.202-6.936-6.936-.69-1.299-2.34-3.642-.345-8.928-6.762-6.066-7.281-14.217-6.066-19.68 1.557-6.411 13.002-30.51 47.676-33.372 0 0 16.989-1.215 19.935 7.803h.522s16.47 0 16.122 14.736c0 14.736-18.204 33.111-36.756 39.441m15.432-42.216c-10.92 1.734-27.741 16.299-35.799 28.347 12.393 2.253 34.065 1.386 43.773-18.207 0 0 4.593-12.306-7.974-10.14m-47.937 9.537c-3.468 5.634-3.639 9.015-1.992 11.268 4.074-6.069 11.268-15.603 22.104-23.058-8.322.867-15.345 4.335-20.112 11.79m295.339 133.233c-7.977 19.593-14.739 39.441-18.639 69.174 0 0-.867 5.808-5.634 3.903-4.77-1.734-12.57-9.537-14.304-20.544-1.731-14.391 4.68-38.661 17.772-66.573-3.816-6.069-6.504-15.087-4.335-27.741 0 0 3.468-23.403 26.874-44.556 0 0 2.772-2.34 4.335-1.56 1.905.867 1.125 8.322-.435 12.138-1.389 3.639-11.79 21.669-11.79 21.669s-6.501 12.309-4.68 21.93c12.309-18.897 40.308-57.213 57.645-45.075 11.007 7.8 11.007 32.94 2.772 47.502-6.501 11.529-24.879 35.37-49.41 29.82m36.063-58.947c-6.417 6.936-17.859 20.112-26.874 37.971 9.537-1.041 18.81-6.327 21.672-9.018 4.593-4.074 15.168-15.081 13.524-29.643 0 0-1.041-7.629-8.322.69m-388.351 69.09c-30.687 9.363-59.64 5.028-75.414.867-.435 6.414-1.128 9.102-2.169 10.14-1.215 1.389-11.268 7.11-16.818-1.038-2.427-3.903-3.639-10.923-4.335-17.34-35.538-16.119-52.011-39.873-52.53-40.74-.867-.867-8.928-9.276-.867-19.677 7.542-9.36 32.508-18.81 54.873-22.536.867-19.074 2.946-33.81 5.634-40.311 3.207-7.8 7.281-.867 10.923 4.335 2.946 3.9 4.764 20.631 4.941 33.981 14.562-.696 23.403.345 39.612 3.468 21.327 3.639 35.544 14.562 34.416 26.871-1.041 12.135-12.138 17.163-16.473 17.511-4.329.345-11.265-2.862-11.265-2.862-4.854-2.253-.435-4.335 5.202-6.759 6.24-3.033 4.854-6.069 4.854-6.069-2.253-6.936-29.91-11.532-57.39-11.532 0 15.171.609 40.308 1.044 54.96 19.242 3.639 33.633 2.862 33.633 2.862s70.212-1.995 72.207-46.812c2.169-44.901-70.215-87.897-123.525-101.421-53.223-13.956-83.391-4.074-85.989-2.772-2.862 1.386-.264 1.905-.264 1.905s2.862.432 8.064 2.166c5.199 1.734 1.041 4.335 1.041 4.335-9.105 3.12-19.245 1.302-21.24-2.859-1.992-4.077 1.299-7.803 5.202-13.263 3.642-5.634 7.8-5.46 7.8-5.46 65.883-22.974 146.325 18.204 146.325 18.204 75.243 37.965 88.071 82.611 86.685 99.945-1.215 17.076-7.803 45.942-54.177 59.985m-144.765-62.064c-7.455 3.465-2.253 9.015-2.253 9.015 14.043 14.997 31.206 24.444 47.676 30.342 1.908-26.007 1.734-35.283 1.734-48.372-25.485 1.734-40.221 5.892-47.157 9.015" fill="#fff"/></svg>

<?xml version="1.0" encoding="utf-8"?>
<svg version="1.1" id="svg11519" xmlns="http://www.w3.org/2000/svg">
  <g>
    <path id="path11521" d="M 518.545 107.957 C 508.402 110.297 481.618 111.599 481.618 111.599 L 478.321 122.174 C 478.321 122.174 491.587 121.046 501.295 122 C 501.295 122 504.415 121.739 504.763 125.468 C 504.934 129.284 504.502 133.271 504.502 133.271 C 504.502 133.271 504.244 135.611 501.034 136.217 C 497.308 136.823 472.168 137.951 472.168 137.951 L 468.094 151.646 C 468.094 151.646 466.618 154.769 470.002 153.902 C 473.122 153.035 499.474 148.007 502.942 148.7 C 506.584 149.567 510.742 154.595 509.53 159.101 C 508.141 164.561 481.789 181.379 465.841 180.251 C 465.841 180.251 457.432 180.776 450.409 169.418 C 443.65 158.582 452.752 138.209 452.752 138.209 C 452.752 138.209 448.675 128.675 451.711 125.207 C 451.711 125.207 453.445 123.734 458.644 123.302 L 465.148 109.952 C 465.148 109.952 457.777 110.387 453.445 105.011 C 449.455 99.809 449.11 97.556 452.233 96.17 C 455.524 94.436 486.037 88.976 507.016 89.666 C 507.016 89.666 514.384 88.799 520.888 101.543 C 520.888 101.543 523.831 106.745 518.629 107.957 M 439.486 159.275 C 436.885 165.605 429.694 172.277 421.024 168.206 C 412.182 164.042 398.226 135.611 398.226 135.611 C 398.226 135.611 393.024 125.036 391.986 125.381 C 391.986 125.381 390.855 123.302 390.252 134.918 C 389.385 146.447 390.423 168.896 385.656 172.451 C 381.321 175.919 376.119 174.446 373.173 170.372 C 370.746 166.295 369.705 156.5 371.094 139.424 C 372.651 122.348 376.554 104.144 381.495 98.507 C 386.697 92.786 390.855 96.95 392.418 98.507 C 392.418 98.507 399.093 104.576 410.361 122.519 L 412.27 125.816 C 412.27 125.816 422.497 142.892 423.538 142.805 C 423.538 142.805 424.405 143.672 425.098 142.979 C 426.139 142.718 425.79 137.171 425.79 137.171 C 425.79 137.171 423.885 118.709 414.348 87.5 C 414.348 87.5 412.962 83.513 413.917 79.697 C 414.784 76.229 418.51 77.963 418.51 77.963 C 418.51 77.963 432.898 84.899 439.921 108.305 C 446.857 131.708 442.177 152.948 439.576 159.275 M 368.925 99.203 C 367.539 101.627 366.93 105.011 360.951 105.962 C 360.951 105.962 302.871 110.039 300.009 114.113 C 300.009 114.113 298.104 116.54 301.224 117.146 C 304.521 117.842 317.694 119.576 323.937 119.918 C 330.696 119.918 353.409 120.095 361.728 130.322 C 361.728 130.322 366.498 135.176 366.324 146.186 C 366.153 157.454 364.158 161.441 359.736 165.518 C 355.14 169.331 315.786 187.016 290.388 159.968 C 290.388 159.968 278.775 146.966 294.465 137.084 C 294.465 137.084 305.73 130.151 334.596 138.209 C 334.596 138.209 343.266 141.332 342.918 144.539 C 342.399 148.007 335.724 151.475 326.016 151.301 C 316.653 151.043 309.717 146.531 311.109 147.314 C 312.408 147.746 300.963 141.764 297.408 145.841 C 293.943 149.651 294.81 151.91 298.275 154.247 C 306.945 159.275 341.013 157.454 351.153 146.099 C 351.153 146.099 355.23 141.506 349.074 137.777 C 343.008 134.309 325.323 132.143 318.474 131.885 C 311.973 131.537 287.616 131.885 283.974 125.555 C 283.974 125.555 280.509 121.046 284.319 108.74 C 288.306 95.735 316.653 90.707 328.965 89.666 C 328.965 89.666 362.772 88.28 369.099 95.216 C 369.099 95.216 369.966 96.773 368.925 99.116 M 273.054 175.397 C 268.977 178.433 260.307 177.131 257.796 173.663 C 255.369 170.63 254.502 158.669 254.934 139.859 C 255.543 120.614 255.801 97.037 260.136 93.221 C 264.471 89.495 267.072 92.786 268.806 95.303 C 270.537 97.901 272.793 100.76 273.138 106.745 C 273.66 112.811 275.13 144.017 275.13 144.017 C 275.13 144.017 277.041 172.451 273.138 175.397 M 281.718 73.976 C 269.757 78.053 261.609 76.751 254.676 73.718 C 251.643 79.178 249.819 80.825 247.566 81.173 C 244.098 81.518 241.065 75.971 240.63 74.237 C 239.94 72.938 238.29 70.595 240.285 65.309 C 233.523 59.243 233.004 51.092 234.219 45.629 C 235.776 39.218 247.221 15.119 281.895 12.257 C 281.895 12.257 298.884 11.042 301.83 20.06 L 302.352 20.06 C 302.352 20.06 318.822 20.06 318.474 34.796 C 318.474 49.532 300.27 67.907 281.718 74.237 M 297.15 32.021 C 286.23 33.755 269.409 48.32 261.351 60.368 C 273.744 62.621 295.416 61.754 305.124 42.161 C 305.124 42.161 309.717 29.855 297.15 32.021 M 249.213 41.558 C 245.745 47.192 245.574 50.573 247.221 52.826 C 251.295 46.757 258.489 37.223 269.325 29.768 C 261.003 30.635 253.98 34.103 249.213 41.558 M 544.552 174.791 C 536.575 194.384 529.813 214.232 525.913 243.965 C 525.913 243.965 525.046 249.773 520.279 247.868 C 515.509 246.134 507.709 238.331 505.975 227.324 C 504.244 212.933 510.655 188.663 523.747 160.751 C 519.931 154.682 517.243 145.664 519.412 133.01 C 519.412 133.01 522.88 109.607 546.286 88.454 C 546.286 88.454 549.058 86.114 550.621 86.894 C 552.526 87.761 551.746 95.216 550.186 99.032 C 548.797 102.671 538.396 120.701 538.396 120.701 C 538.396 120.701 531.895 133.01 533.716 142.631 C 546.025 123.734 574.024 85.418 591.361 97.556 C 602.368 105.356 602.368 130.496 594.133 145.058 C 587.632 156.587 569.254 180.428 544.723 174.878 M 580.786 115.931 C 574.369 122.867 562.927 136.043 553.912 153.902 C 563.449 152.861 572.722 147.575 575.584 144.884 C 580.177 140.81 590.752 129.803 589.108 115.241 C 589.108 115.241 588.067 107.612 580.786 115.931 M 192.435 185.021 C 161.748 194.384 132.795 190.049 117.021 185.888 C 116.586 192.302 115.893 194.99 114.852 196.028 C 113.637 197.417 103.584 203.138 98.034 194.99 C 95.607 191.087 94.395 184.067 93.699 177.65 C 58.161 161.531 41.688 137.777 41.169 136.91 C 40.302 136.043 32.241 127.634 40.302 117.233 C 47.844 107.873 72.81 98.423 95.175 94.697 C 96.042 75.623 98.121 60.887 100.809 54.386 C 104.016 46.586 108.09 53.519 111.732 58.721 C 114.678 62.621 116.496 79.352 116.673 92.702 C 131.235 92.006 140.076 93.047 156.285 96.17 C 177.612 99.809 191.829 110.732 190.701 123.041 C 189.66 135.176 178.563 140.204 174.228 140.552 C 169.899 140.897 162.963 137.69 162.963 137.69 C 158.109 135.437 162.528 133.355 168.165 130.931 C 174.405 127.898 173.019 124.862 173.019 124.862 C 170.766 117.926 143.109 113.33 115.629 113.33 C 115.629 128.501 116.238 153.638 116.673 168.29 C 135.915 171.929 150.306 171.152 150.306 171.152 C 150.306 171.152 220.518 169.157 222.513 124.34 C 224.682 79.439 152.298 36.443 98.988 22.919 C 45.765 8.963 15.597 18.845 12.999 20.147 C 10.137 21.533 12.735 22.052 12.735 22.052 C 12.735 22.052 15.597 22.484 20.799 24.218 C 25.998 25.952 21.84 28.553 21.84 28.553 C 12.735 31.673 2.595 29.855 0.6 25.694 C -1.392 21.617 1.899 17.891 5.802 12.431 C 9.444 6.797 13.602 6.971 13.602 6.971 C 79.485 -16.003 159.927 25.175 159.927 25.175 C 235.17 63.14 247.998 107.786 246.612 125.12 C 245.397 142.196 238.809 171.062 192.435 185.105 M 47.67 123.041 C 40.215 126.506 45.417 132.056 45.417 132.056 C 59.46 147.053 76.623 156.5 93.093 162.398 C 95.001 136.391 94.827 127.115 94.827 114.026 C 69.342 115.76 54.606 119.918 47.67 123.041" style="fill: rgb(255, 255, 255);"/>
  </g>
</svg>
